icons/24x24_tour_outline.svg

<svg xmlns="http://www.w3.org/2000/svg" width="24" height="24" viewBox="0 0 24 24">
  <path fill-rule="evenodd" d="M21.414,8.12125 L22.828,6.70725 C23.219,6.31625 23.219,5.68325 22.828,5.29325 C22.437,4.90225 21.805,4.90225 21.414,5.29325 L20,6.70725 L18.586,5.29325 C18.195,4.90225 17.562,4.90225 17.172,5.29325 C16.781,5.68325 16.781,6.31625 17.172,6.70725 L18.586,8.12125 L17.172,9.53525 C16.781,9.92625 16.781,10.55925 17.172,10.94925 C17.367,11.14425 17.623,11.24225 17.879,11.24225 C18.135,11.24225 18.391,11.14425 18.586,10.94925 L20,9.53525 L21.414,10.94925 C21.609,11.14425 21.865,11.24225 22.121,11.24225 C22.377,11.24225 22.633,11.14425 22.828,10.94925 C23.219,10.55925 23.219,9.92625 22.828,9.53525 L21.414,8.12125 Z M20,12.62125 C19.447,12.62125 19,13.06925 19,13.62125 L19,14.62125 C19,15.17425 19.447,15.62125 20,15.62125 C20.553,15.62125 21,15.17425 21,14.62125 L21,13.62125 C21,13.06925 20.553,12.62125 20,12.62125 Z M13.642,17.58825 C13.225,17.32625 12.859,16.97225 12.585,16.56025 C12.279,16.10025 11.658,15.97625 11.199,16.28325 C10.739,16.59025 10.615,17.21025 10.921,17.67025 C11.351,18.31425 11.924,18.87225 12.58,19.28325 C12.745,19.38725 12.928,19.43525 13.11,19.43525 C13.443,19.43525 13.768,19.26925 13.958,18.96725 C14.251,18.49925 14.11,17.88225 13.642,17.58825 Z M17.788,17.27025 C17.408,17.59925 16.973,17.83625 16.495,17.97725 C15.966,18.13525 15.664,18.69025 15.82,19.22125 C15.949,19.65525 16.348,19.93625 16.779,19.93625 C16.873,19.93625 16.969,19.92425 17.063,19.89525 C17.814,19.67325 18.498,19.29925 19.095,18.78425 C19.513,18.42425 19.56,17.79225 19.198,17.37425 C18.838,16.95425 18.204,16.90925 17.788,17.27025 Z M3,10.39625 C2.448,10.39625 2,10.84425 2,11.39625 L2,13.30525 C2,13.85725 2.448,14.30525 3,14.30525 C3.552,14.30525 4,13.85725 4,13.30525 L4,11.39625 C4,10.84425 3.552,10.39625 3,10.39625 Z M4.784,5.63825 C4.073,5.99025 3.447,6.51425 2.975,7.15425 C2.647,7.59925 2.741,8.22525 3.185,8.55325 C3.364,8.68425 3.572,8.74825 3.778,8.74825 C4.085,8.74825 4.388,8.60725 4.584,8.34225 C4.868,7.95725 5.244,7.64225 5.671,7.43125 C6.166,7.18525 6.369,6.58525 6.124,6.09125 C5.878,5.59625 5.279,5.39325 4.784,5.63825 Z M10.868,8.69025 C11.324,8.37925 11.44,7.75625 11.128,7.30125 C10.68,6.64425 10.073,6.09825 9.375,5.72025 C8.889,5.46025 8.283,5.63925 8.019,6.12425 C7.757,6.61125 7.938,7.21725 8.424,7.48025 C8.843,7.70625 9.207,8.03525 9.478,8.43025 C9.671,8.71325 9.985,8.86525 10.304,8.86525 C10.498,8.86525 10.695,8.80825 10.868,8.69025 Z M12,13.44925 L12,11.54025 C12,10.98825 11.552,10.54025 11,10.54025 C10.448,10.54025 10,10.98825 10,11.54025 L10,13.44925 C10,14.00125 10.448,14.44925 11,14.44925 C11.552,14.44925 12,14.00125 12,13.44925 Z M3,16.12125 C2.448,16.12125 2,16.56825 2,17.12125 L2,18.12125 C2,18.67425 2.448,19.12125 3,19.12125 C3.552,19.12125 4,18.67425 4,18.12125 L4,17.12125 C4,16.56825 3.552,16.12125 3,16.12125 Z"/>
</svg>

<svg width="24" height="24" fill="none" xmlns="http://www.w3.org/2000/svg"><path fill-rule="evenodd" clip-rule="evenodd" d="m21.414 8.121 1.414-1.414a.999.999 0 1 0-1.414-1.414L20 6.707l-1.414-1.414a.999.999 0 1 0-1.414 1.414l1.414 1.414-1.414 1.414a.999.999 0 1 0 1.414 1.414L20 9.535l1.414 1.414a.997.997 0 0 0 1.414 0 .999.999 0 0 0 0-1.414l-1.414-1.414ZM20 12.621a1 1 0 0 0-1 1v1a1 1 0 1 0 2 0v-1a1 1 0 0 0-1-1Zm-6.358 4.967a3.536 3.536 0 0 1-1.057-1.028 1 1 0 0 0-1.664 1.11 5.56 5.56 0 0 0 1.659 1.613 1 1 0 1 0 1.062-1.695Zm4.146-.318c-.38.33-.815.566-1.293.707a1.002 1.002 0 0 0-.675 1.244 1.002 1.002 0 0 0 1.243.674 5.464 5.464 0 0 0 2.032-1.11.998.998 0 0 0 .103-1.41.998.998 0 0 0-1.41-.105ZM3 10.396a1 1 0 0 0-1 1v1.91a1 1 0 0 0 2 0v-1.91a1 1 0 0 0-1-1Zm1.784-4.758a5.032 5.032 0 0 0-1.809 1.516 1 1 0 0 0 1.609 1.188c.284-.385.66-.7 1.087-.91a1 1 0 0 0-.887-1.794Zm6.084 3.052a.998.998 0 0 0 .26-1.389 5.029 5.029 0 0 0-1.753-1.58 1.004 1.004 0 0 0-1.356.403 1.001 1.001 0 0 0 .405 1.356 3.03 3.03 0 0 1 1.054.95.998.998 0 0 0 1.39.26ZM12 13.45v-1.91a1 1 0 0 0-2 0v1.91a1 1 0 0 0 2 0Zm-9 2.67a1 1 0 0 0-1 1v1a1 1 0 1 0 2 0v-1a1 1 0 0 0-1-1Z" fill="#000"/></svg>
